X:6
T:Well May Charlie Wear the Crown
T:Gu ma maigh thig an crùn dha Tearlach
M:4/4
L:1/8
R: Slow air
Z: Jason R. Fruit <jason@gmail.com>
S: Transcribed from playing of Ron Gonnella
K:Bminor
fe | {c}d2 {cd}c>B Bc {Bc}dD | FA {B}A2 {AB}A2 {ea}fe | {c}d2 {cd}c>B Bc {Bc}d^E | F2 B>c {Bc}B2 fe |
{c}d2 {cd}c>B Bc {Bc}dD | F2 A2 {A}a3g | {fg}f>e d>c B>c {Bc}d^E | {^EG}F2 B>c {Bc}B2 :| 
{Bc}B/A/B/c/ | d>c d>e {d}f3 e | {ef}e>d c>B {B}A2 {fg}f>e | d2 {cd}c>B Bc {Bc}d^E | {^EG}F2 B>c {Bc}B2 Bc | 
{de}d>c d>e {d}f3 e | {ef}e>d c>B {A}a2- a>g | {fg}f>e d>c B>c {Bc}d^E | {^E}F2 B>c {dc}B2 |]

